!!!COM: Hugo Wolf
!!!CNT: Deutscher
!!!TXO: Deutsche 
!!!OTL: Zuh Ruh, zur Ruh
!!!OPR: Sechs Gedichte von Scheffel, Mo2rike, Goethe und Kerner
!!!ONM: No. 6
!!!ODT: 1883/
!!!LYR: Justinus Kerner
!!!ENC: Brian Bice
!!!YOR: 65 Songs for voice and piano, International Music Company, 1960
!!NB: Vocal melody and text only encoded.
**kern	**silbe
*clefG2	*
*k[b-e-a-d-]	*
*M2/2	*
=1	=1
2r	.
4r	.
{4g-	{Zur
=2	=2
2.f	Ruh,
4a-	zur
=3	=3
4e-	Ruh
4e-	ihr
4.e-	mu2-
8d-	-den
=4	=4
4d-	Glie-
4c}	-der!}
4r	.
{4a-	{schliesst
=5	=5
2.dd-	fest
4dd-	euch
=6	=6
[2cc	zu,
8cc]	|
8r	.
4cc	ihr
=7	=7
(2cc	Au-
4f)	|
4b-	-gen-
=8	=8
4a-	-li-
4g}	-der!}
2r	.
=9	=9
4r	.
{4g-	{ich
4g-	bin
8r	.
8g-	al-
=10	=10
2.f	-lein,
4r	.
=11	=11
2f-	fort
4.f-	ist
8f-	die
=12	=12
4e-	Er-
4e-}	-de;}
2r	.
=13	=13
4r	.
{2Bn	{Nacht
8Bn	muss
8Bn	es
=14	=14
4c	sein,
4e-	dass
[2dd-	Licht
=15	=15
4dd-]	|
4cc	mir
(4.b-	wer-
8a-)	|
=16	=16
4a-}	-de,}
4r	.
2r	.
=17	=17
*k[f#c#g#d#]	*
{2g#	{o
4.gn	fu2hrt
8gn	mich
=18	=18
4f#	ganz,
4f#	ihr
[(2b	in-
=19	=19
2b]	|
4.a#)	|
8b	-nern
=20	=20
2a#	Ma2ch-
2g#}	-te!}
=21	=21
{2cc#	{hin
4.ccn	zu
8ccn	dem
=22	=22
4b	Glanz
4b	der
[2ee	tief-
=23	=23
2ee]	|
4.dd#	|
8ee	-sten
=24	=24
2dd#	Na2ch-
2cc#}	-te.}
=25	=25
{2ddn	{Fort
4.ddn	aus
8ddn	dem
=26	=26
2.ddn	Raum
4ddn	der
=27	=27
*k[b-e-a-d-]	*
2.ee-	Er-
4ff	-den-
=28	=28
2ff	-schmer-
4ee-}	-zen,}
{4ee-	{durch
=29	=29
2ff	Nacht
2ff-	und
=30	=30
[1aa-	Traum
=31	=31
4aa-]	|
4a-	zum
[2dd-	Mut-
=32	=32
2dd-]	|
2cc	-ter-
=33	=33
(2.cc-	-her-
4b-)	|
=34	=34
2a-}	-zen!}
2r	.
*-	*-
